X:1
T:Arranmore Boat Song
M:2/4
L:1/16
K:D
A-F| D2F-G A2B-c|d-ef-d e2d-B| A2A-B A2F-A|A-B d2d2|A-F| D2F-G A2B-c|\
d-ef-d e2d-B| A2A-B A2F-D| E2D2 D2|A-F|A-Bd-e f2e-f| g2f2 e2d-e| f2e2d-BA-B|\
A-B d2d2|A-F| D2F-G A2B-c|d-ef-d e2d-B| A2A-B A2F-D| E2D2 D2||
